packages/ffe-icons/icons/filled/lg/nest_hello_doorbell.svg

<svg xmlns="http://www.w3.org/2000/svg" height="40" viewBox="0 -960 960 960" width="40"><path d="M480.057-90q-78.826 0-134.441-55.576Q290.001-201.15 290.001-280v-400q0-78.85 55.558-134.424 55.558-55.575 134.384-55.575t134.441 55.575Q669.999-758.85 669.999-680v400q0 78.85-55.558 134.424-55.558 55.575-134.384 55.575ZM480-562.309q32.048 0 54.87-22.822 22.822-22.822 22.822-54.87t-22.822-54.87q-22.822-22.822-54.87-22.822t-54.87 22.822q-22.822 22.822-22.822 54.87t22.822 54.87q22.822 22.822 54.87 22.822Zm0 320q32.048 0 54.87-22.822 22.822-22.822 22.822-54.87t-22.822-54.87q-22.822-22.822-54.87-22.822t-54.87 22.822q-22.822 22.822-22.822 54.87t22.822 54.87q22.822 22.822 54.87 22.822Zm.009-33.076q-18.855 0-31.74-12.827-12.885-12.826-12.885-31.681t12.827-31.918q12.826-13.062 31.681-13.062t31.918 13.004q13.062 13.004 13.062 31.859 0 18.855-13.004 31.74-13.004 12.885-31.859 12.885Z"/></svg>

<svg xmlns="http://www.w3.org/2000/svg" viewBox="0 -960 960 960" width="32" height="32"><path d="M480.06-90q-78.83 0-134.44-55.58Q290-201.15 290-280v-400q0-78.85 55.56-134.42Q401.12-870 479.94-870q78.83 0 134.44 55.58Q670-758.85 670-680v400q0 78.85-55.56 134.42Q558.88-90 480.06-90ZM480-562.31q32.05 0 54.87-22.82T557.69-640q0-32.05-22.82-54.87T480-717.69q-32.05 0-54.87 22.82T402.31-640q0 32.05 22.82 54.87T480-562.31Zm0 320q32.05 0 54.87-22.82T557.69-320q0-32.05-22.82-54.87T480-397.69q-32.05 0-54.87 22.82T402.31-320q0 32.05 22.82 54.87T480-242.31Zm.01-33.07q-18.86 0-31.74-12.83-12.89-12.83-12.89-31.68 0-18.86 12.83-31.92 12.83-13.06 31.68-13.06 18.86 0 31.92 13 13.06 13.01 13.06 31.86 0 18.86-13 31.74-13.01 12.89-31.86 12.89Z"/></svg>
